src/pages/home/assets/mui5.svg

<svg viewBox="0 0 1280 720" xmlns="http://www.w3.org/2000/svg" xml:space="preserve" style="fill-rule:evenodd;clip-rule:evenodd;stroke-linejoin:round;stroke-miterlimit:1.5"><g transform="translate(-251.305 -105.198) scale(1.29011)"><path d="M356.123 288.659a7.998 7.998 0 0 0 8.709 0l116.402-75.53a4.999 4.999 0 0 1 7.722 4.195v146.923a16 16 0 0 1-7.291 13.422l-73.716 47.832a4.001 4.001 0 0 0 0 6.711l33.839 21.957a8 8 0 0 0 8.691.012l77.64-50.089a8.003 8.003 0 0 0 3.663-6.723V355.48a16 16 0 0 1 7.29-13.422l27.814-18.048a5 5 0 0 1 7.722 4.195v91.965c0 5.43-2.754 10.489-7.315 13.437l-112.435 72.678a16.05 16.05 0 0 1-17.446-.015l-69.643-45.19a16 16 0 0 1-7.291-13.422v-41.905a7.999 7.999 0 0 1 3.643-6.709l78.366-50.891a8.002 8.002 0 0 0 3.643-6.71v-43.232a4.002 4.002 0 0 0-6.178-3.356l-70.739 45.902a16.05 16.05 0 0 1-17.47 0l-70.74-45.902a3.999 3.999 0 0 0-6.177 3.356v89.629a7 7 0 0 1-10.81 5.872l-24.725-16.043A16 16 0 0 1 232 364.247V217.324a5.001 5.001 0 0 1 7.722-4.195l116.401 75.53Zm175.659-43.423c0-5.42 2.744-10.471 7.29-13.422l27.814-18.047a4.998 4.998 0 0 1 7.722 4.194v37.044a16 16 0 0 1-7.291 13.422l-27.814 18.047a4.998 4.998 0 0 1-7.721-4.194v-37.044Z" style="fill:#1477cc"/><clipPath id="a"><path d="M356.123 288.659a7.998 7.998 0 0 0 8.709 0l116.402-75.53a4.999 4.999 0 0 1 7.722 4.195v146.923a16 16 0 0 1-7.291 13.422l-73.716 47.832a4.001 4.001 0 0 0 0 6.711l33.839 21.957a8 8 0 0 0 8.691.012l77.64-50.089a8.003 8.003 0 0 0 3.663-6.723V355.48a16 16 0 0 1 7.29-13.422l27.814-18.048a5 5 0 0 1 7.722 4.195v91.965c0 5.43-2.754 10.489-7.315 13.437l-112.435 72.678a16.05 16.05 0 0 1-17.446-.015l-69.643-45.19a16 16 0 0 1-7.291-13.422v-41.905a7.999 7.999 0 0 1 3.643-6.709l78.366-50.891a8.002 8.002 0 0 0 3.643-6.71v-43.232a4.002 4.002 0 0 0-6.178-3.356l-70.739 45.902a16.05 16.05 0 0 1-17.47 0l-70.74-45.902a3.999 3.999 0 0 0-6.177 3.356v89.629a7 7 0 0 1-10.81 5.872l-24.725-16.043A16 16 0 0 1 232 364.247V217.324a5.001 5.001 0 0 1 7.722-4.195l116.401 75.53Zm175.659-43.423c0-5.42 2.744-10.471 7.29-13.422l27.814-18.047a4.998 4.998 0 0 1 7.722 4.194v37.044a16 16 0 0 1-7.291 13.422l-27.814 18.047a4.998 4.998 0 0 1-7.721-4.194v-37.044Z"/></clipPath><g clip-path="url(#a)"><path d="M511.522 298.211a4 4 0 0 1 6.177-3.356l79.475 51.57 16.522-10.721-4.167 2.704a8.002 8.002 0 0 1-12.355-6.711V300.12a16.001 16.001 0 0 0-7.295-13.425l-121.183-78.576v164.819l42.826 27.788V298.211Z" style="fill:#19f" transform="translate(-236.696)"/><path d="m597.174 455.985 85.652 55.577 13.318-8.608-.975.63a8 8 0 0 1-12.343-6.719v-31.551a16 16 0 0 0-7.291-13.422l-68.023-44.138a7.999 7.999 0 0 1-.002-13.421l2.224-1.444-12.56 8.156v54.94Z" style="fill:#19f" transform="translate(-236.696 .364)"/></g></g><path d="M335.523 540.469h43.835l99.761-252.429v-5.039h-43.835l-76.08 208.141h-2.015l-79.104-208.141v114.3l57.438 143.168Zm302.883 4.535c79.148 0 117.394-48.826 117.394-119.915 0-65.542-39.253-114.873-110.336-114.873-37.309 0-59.494 14.591-72.603 28.678h-2.016l8.067-112.401h160.281v-38.742H541.646l-13.588 194.974h44.299c13.613-18.641 32.772-34.774 66.553-34.774 50.923 0 73.611 34.284 73.611 78.651 0 45.88-20.671 80.163-74.115 80.163-46.89 0-73.612-29.746-73.612-66.046H522.02c0 58.988 44.287 104.285 116.386 104.285Z" style="fill:#eee;fill-rule:nonzero" transform="translate(458.754 -12.584) scale(1.02308)"/><path d="M322 554V195" style="fill:none;stroke:url(#b);stroke-width:30px" transform="translate(421.259 -13.5)"/><path d="m155 360 167-167 167 167" style="fill:none;stroke:#19f;stroke-width:52.11px" transform="translate(557.886 68.392) scale(.57569)"/><defs><linearGradient id="b" x1="0" y1="0" x2="1" y2="0" gradientUnits="userSpaceOnUse" gradientTransform="matrix(0 -94.1403 94.1403 0 322 289.14)"><stop offset="0" style="stop-color:#19f;stop-opacity:1"/><stop offset="1" style="stop-color:#1477cc;stop-opacity:1"/></linearGradient></defs></svg>

<?xml version="1.0" encoding="UTF-8" standalone="no"?>
<!DOCTYPE svg PUBLIC "-//W3C//DTD SVG 1.1//EN" "http://www.w3.org/Graphics/SVG/1.1/DTD/svg11.dtd">
<svg width="100%" height="100%" viewBox="0 0 1280 720" version="1.1" xmlns="http://www.w3.org/2000/svg" xmlns:xlink="http://www.w3.org/1999/xlink" xml:space="preserve" xmlns:serif="http://www.serif.com/" style="fill-rule:evenodd;clip-rule:evenodd;stroke-linejoin:round;stroke-miterlimit:1.5;">
    <g transform="matrix(1.29011,0,0,1.29011,-251.305,-105.198)">
        <path d="M356.123,288.659C358.772,290.378 362.184,290.378 364.832,288.659C383.523,276.532 457.09,228.796 481.234,213.129C482.772,212.131 484.732,212.055 486.342,212.93C487.953,213.805 488.956,215.491 488.956,217.324C488.956,246.382 488.956,335.914 488.956,364.247C488.956,369.667 486.212,374.718 481.665,377.669C464.647,388.711 422.638,415.97 407.949,425.501C406.812,426.239 406.126,427.502 406.126,428.857C406.126,430.212 406.812,431.475 407.949,432.212C416.575,437.81 433.747,448.952 441.788,454.169C444.43,455.884 447.832,455.888 450.479,454.181C465.394,444.559 514.305,413.004 528.119,404.092C530.402,402.618 531.782,400.087 531.782,397.369L531.782,355.48C531.782,350.06 534.526,345.008 539.072,342.058C546.81,337.037 558.988,329.135 566.886,324.01C568.423,323.013 570.384,322.936 571.994,323.811C573.605,324.686 574.608,326.372 574.608,328.205C574.608,349.079 574.608,399.777 574.608,420.17C574.608,425.6 571.854,430.659 567.293,433.607C545.133,447.932 478.789,490.816 454.858,506.285C449.547,509.717 442.716,509.711 437.412,506.27C420.491,495.29 383.483,471.277 367.769,461.08C363.222,458.13 360.478,453.078 360.478,447.658C360.478,435.743 360.478,414.786 360.478,405.753C360.478,403.044 361.849,400.519 364.121,399.044C378.134,389.944 428.474,357.252 442.487,348.153C444.759,346.677 446.13,344.152 446.13,341.443C446.13,332.065 446.13,309.832 446.13,298.211C446.13,296.745 445.327,295.396 444.039,294.696C442.751,293.996 441.182,294.057 439.952,294.855C424.95,304.59 386.555,329.504 369.213,340.757C363.9,344.204 357.056,344.204 351.743,340.757C334.401,329.504 296.006,304.59 281.003,294.855C279.773,294.057 278.205,293.996 276.917,294.696C275.628,295.396 274.826,296.745 274.826,298.211C274.826,316.587 274.826,364.648 274.826,387.84C274.826,390.406 273.422,392.766 271.167,393.991C268.912,395.216 266.168,395.109 264.016,393.712C256.281,388.693 246.078,382.073 239.291,377.669C234.744,374.718 232,369.667 232,364.247C232,335.914 232,246.382 232,217.324C232,215.491 233.003,213.805 234.613,212.93C236.224,212.055 238.184,212.131 239.722,213.129C263.866,228.796 337.433,276.532 356.123,288.659ZM531.782,245.236C531.782,239.816 534.526,234.765 539.072,231.814C546.81,226.794 558.988,218.892 566.886,213.767C568.423,212.769 570.384,212.693 571.994,213.568C573.605,214.442 574.608,216.128 574.608,217.961L574.608,255.005C574.608,260.425 571.864,265.477 567.317,268.427C559.579,273.448 547.401,281.35 539.503,286.474C537.966,287.472 536.006,287.549 534.395,286.674C532.784,285.799 531.782,284.113 531.782,282.28L531.782,245.236Z" style="fill:rgb(20,119,204);"/>
        <clipPath id="_clip1">
            <path d="M356.123,288.659C358.772,290.378 362.184,290.378 364.832,288.659C383.523,276.532 457.09,228.796 481.234,213.129C482.772,212.131 484.732,212.055 486.342,212.93C487.953,213.805 488.956,215.491 488.956,217.324C488.956,246.382 488.956,335.914 488.956,364.247C488.956,369.667 486.212,374.718 481.665,377.669C464.647,388.711 422.638,415.97 407.949,425.501C406.812,426.239 406.126,427.502 406.126,428.857C406.126,430.212 406.812,431.475 407.949,432.212C416.575,437.81 433.747,448.952 441.788,454.169C444.43,455.884 447.832,455.888 450.479,454.181C465.394,444.559 514.305,413.004 528.119,404.092C530.402,402.618 531.782,400.087 531.782,397.369L531.782,355.48C531.782,350.06 534.526,345.008 539.072,342.058C546.81,337.037 558.988,329.135 566.886,324.01C568.423,323.013 570.384,322.936 571.994,323.811C573.605,324.686 574.608,326.372 574.608,328.205C574.608,349.079 574.608,399.777 574.608,420.17C574.608,425.6 571.854,430.659 567.293,433.607C545.133,447.932 478.789,490.816 454.858,506.285C449.547,509.717 442.716,509.711 437.412,506.27C420.491,495.29 383.483,471.277 367.769,461.08C363.222,458.13 360.478,453.078 360.478,447.658C360.478,435.743 360.478,414.786 360.478,405.753C360.478,403.044 361.849,400.519 364.121,399.044C378.134,389.944 428.474,357.252 442.487,348.153C444.759,346.677 446.13,344.152 446.13,341.443C446.13,332.065 446.13,309.832 446.13,298.211C446.13,296.745 445.327,295.396 444.039,294.696C442.751,293.996 441.182,294.057 439.952,294.855C424.95,304.59 386.555,329.504 369.213,340.757C363.9,344.204 357.056,344.204 351.743,340.757C334.401,329.504 296.006,304.59 281.003,294.855C279.773,294.057 278.205,293.996 276.917,294.696C275.628,295.396 274.826,296.745 274.826,298.211C274.826,316.587 274.826,364.648 274.826,387.84C274.826,390.406 273.422,392.766 271.167,393.991C268.912,395.216 266.168,395.109 264.016,393.712C256.281,388.693 246.078,382.073 239.291,377.669C234.744,374.718 232,369.667 232,364.247C232,335.914 232,246.382 232,217.324C232,215.491 233.003,213.805 234.613,212.93C236.224,212.055 238.184,212.131 239.722,213.129C263.866,228.796 337.433,276.532 356.123,288.659ZM531.782,245.236C531.782,239.816 534.526,234.765 539.072,231.814C546.81,226.794 558.988,218.892 566.886,213.767C568.423,212.769 570.384,212.693 571.994,213.568C573.605,214.442 574.608,216.128 574.608,217.961L574.608,255.005C574.608,260.425 571.864,265.477 567.317,268.427C559.579,273.448 547.401,281.35 539.503,286.474C537.966,287.472 536.006,287.549 534.395,286.674C532.784,285.799 531.782,284.113 531.782,282.28L531.782,245.236Z"/>
        </clipPath>
        <g clip-path="url(#_clip1)">
            <g transform="matrix(1,0,0,1,-236.696,0)">
                <path d="M511.522,298.211C511.522,296.745 512.324,295.396 513.613,294.696C514.901,293.996 516.469,294.057 517.699,294.855C537.357,307.61 597.174,346.425 597.174,346.425L613.696,335.704C613.696,335.704 611.918,336.857 609.529,338.408C607.069,340.004 603.932,340.127 601.355,338.727C598.779,337.327 597.174,334.629 597.174,331.697C597.174,321.614 597.174,308.585 597.174,300.12C597.174,294.698 594.428,289.645 589.879,286.695C562.675,269.056 468.696,208.119 468.696,208.119L468.696,372.938L511.522,400.726L511.522,298.211Z" style="fill:rgb(17,153,255);"/>
            </g>
            <g transform="matrix(1,0,0,1,-236.696,0.364178)">
                <path d="M597.174,455.985L682.826,511.562L696.144,502.954C696.144,502.954 695.779,503.19 695.169,503.584C692.708,505.175 689.575,505.293 687.001,503.892C684.428,502.491 682.826,499.795 682.826,496.865C682.826,486.793 682.826,473.774 682.826,465.314C682.826,459.894 680.082,454.842 675.535,451.892C660.305,442.009 625.073,419.149 607.512,407.754C605.239,406.279 603.867,403.754 603.867,401.044C603.866,398.335 605.237,395.809 607.51,394.333C608.831,393.475 609.734,392.889 609.734,392.889L597.174,401.045L597.174,455.985Z" style="fill:rgb(17,153,255);"/>
            </g>
        </g>
    </g>
    <g>
        <g transform="matrix(1.02308,0,0,1.02308,458.754,-12.5843)">
            <path d="M335.523,540.469L379.358,540.469L479.119,288.04L479.119,283.001L435.284,283.001L359.204,491.142L357.189,491.142L278.085,283.001L278.085,397.301L335.523,540.469Z" style="fill:rgb(238,238,238);fill-rule:nonzero;"/>
            <path d="M638.406,545.004C717.554,545.004 755.8,496.178 755.8,425.089C755.8,359.547 716.547,310.216 645.464,310.216C608.155,310.216 585.97,324.807 572.861,338.894L570.845,338.894L578.912,226.493L739.193,226.493L739.193,187.751L541.646,187.751L528.058,382.725L572.357,382.725C585.97,364.084 605.129,347.951 638.91,347.951C689.833,347.951 712.521,382.235 712.521,426.602C712.521,472.482 691.85,506.765 638.406,506.765C591.516,506.765 564.794,477.019 564.794,440.719L522.02,440.719C522.02,499.707 566.307,545.004 638.406,545.004Z" style="fill:rgb(238,238,238);fill-rule:nonzero;"/>
        </g>
        <g transform="matrix(1,0,0,1,421.259,-13.5)">
            <path d="M322,554L322,195" style="fill:none;stroke:url(#_Linear2);stroke-width:30px;"/>
        </g>
        <g transform="matrix(0.57569,0,0,0.57569,557.886,68.3918)">
            <path d="M155,360L322,193L489,360" style="fill:none;stroke:rgb(17,153,255);stroke-width:52.11px;"/>
        </g>
    </g>
    <defs>
        <linearGradient id="_Linear2" x1="0" y1="0" x2="1" y2="0" gradientUnits="userSpaceOnUse" gradientTransform="matrix(-5.69456e-14,-94.1403,94.1403,-5.69456e-14,322,289.14)"><stop offset="0" style="stop-color:rgb(17,153,255);stop-opacity:1"/><stop offset="1" style="stop-color:rgb(20,119,204);stop-opacity:1"/></linearGradient>
    </defs>
</svg>
